!!!!SEGMENT: T292_Rav-w23p1m1-8.krn
!!!COM: Ravel, (Joseph) Maurice
!!!OTL: I: Modéré (Moderately)
!!!AGN: Instrumental
!!!AGN-sub: Chamber
!!!CNT: French
!!!ODT: 1914
!!!OPR: Piano Trio
!!!filename: T292_Rav-w23p1m1-8.krn
**kern	**kern	**dynam	**kern	**dynam	**kern	**dynam
*grp:A	*grp:B	*	*grp:B	*	*grp:B	*
*part3	*part3	*	*part2	*	*part1	*
*staff4	*staff3	*staff3/4	*staff2	*	*staff1	*
*I"Piano	*I"Piano	*	*I"Violoncello	*	*I"Violin	*
*I'Pno.	*I'Pno.	*	*I'Vc.	*	*I'Vln.	*
*clefF4	*clefG2	*	*clefF4	*	*clefG2	*
*k[]	*k[]	*	*k[]	*	*k[]	*
*C:	*C:	*	*C:	*	*C:	*
*M8/8	*M8/8	*	*M8/8	*	*M8/8	*
=1	=1	=1	=1	=1	=1	=1
!	!	!	!	!	!LO:TX:t= Modéré [eighth]=132	!
4r	/8a'>L 8cc 8ee	pp	1r	.	1r	.
.	(8.a 8.cc 8.ee	.	.	.	.	.
*ped	*	*	*	*	*	*
[4e'	.	.	.	.	.	.
.	16f#XJk 16b 16dd	.	.	.	.	.
.	8.aL 8.cc 8.ee	.	.	.	.	.
4e']	.	.	.	.	.	.
.	16bJk 16dd 16ff#X	.	.	.	.	.
.	8cc' 8ee 8gg)	.	.	.	.	.
(>8eL	4b~ 4dd 4ff#	.	.	.	.	.
8EJ	.	.	.	.	.	.
=2	=2	=2	=2	=2	=2	=2
!LO:T:lv	!	!	!	!	!	!
[4EE)	/8a'>L 8cc 8ee	.	1r	.	1r	.
.	(>8.a 8.cc 8.ee	.	.	.	.	.
[4e'	.	.	.	.	.	.
.	16f#XJk 16b 16dd	.	.	.	.	.
.	/8.aL 8.cc 8.ee	.	.	.	.	.
4e']	.	.	.	.	.	.
.	16f#Jk 16b 16dd	.	.	.	.	.
.	8c'> 8fn 8a)	.	.	.	.	.
(>8eL	4d~> 4f#X 4b	.	.	.	.	.
8EJ	.	.	.	.	.	.
=3	=3	=3	=3	=3	=3	=3
!LO:T:lv	!	!	!	!	!	!
[4EE)	/8fn'>L 8b-X 8dd	.	1r	.	1r	.
.	(>8.f 8.b- 8.dd	.	.	.	.	.
[4e'	.	.	.	.	.	.
.	16f#XJk 16bn 16ee	.	.	.	.	.
.	/8.gL 8.cc 8.dd	.	.	.	.	.
4e']	.	.	.	.	.	.
.	16f#Jk 16b 16ee	.	.	.	.	.
.	8c'> 8fn 8a)	.	.	.	.	.
(>8eL	4d~> 4f#X 4b	.	.	.	.	.
8EJ	.	.	.	.	.	.
=4	=4	=4	=4	=4	=4	=4
!LO:T:lv	!	!	!	!	!	!
[4EE)	/8fn'>L 8b-X 8dd	.	1r	.	1r	.
.	(>8.f 8.b- 8.dd	.	.	.	.	.
[4e'	.	.	.	.	.	.
.	16f#XJk 16bn 16ee	.	.	.	.	.
.	8.eL 8.g 8.cc	.	.	.	.	.
4e']	.	.	.	.	.	.
.	16dJk 16f# 16b	.	.	.	.	.
.	8B'> 8d 8g)	.	.	.	.	.
(>8eL	4c#X~> 4e	.	.	.	.	.
8EJ	.	.	.	.	.	.
=5	=5	=5	=5	=5	=5	=5
!LO:T:lv:n=2:b	!	!	!	!	!	!
[4AAA [4AA)	8cc'L 8ee 8aa 8ccc	.	8e'L	pp	8eee'L	pp
.	(8.cc 8.ee 8.aa 8.ccc	.	(8.e	.	(8.eee	.
4E [4e	.	.	.	.	.	.
.	16bJk 16dd 16ff#X 16bb	.	16dJk)	.	16dddJk)	.
.	8.ccL 8.ee 8.aa 8.ccc	.	(8.eL	.	(8.eeeL	.
[4E 4e]	.	.	.	.	.	.
.	16ddJk 16ff# 16bb 16ddd	.	16f#XJk)	.	16fff#XJk)	.
.	8ee' 8gg 8ccc 8eee)	.	(8g'	.	(8ggg'	.
(>8EL] 8e	4dd~ 4ff# 4bb 4ddd	.	4f#~)	.	4fff#~)	.
8EEJ 8E	.	.	.	.	.	.
=6	=6	=6	=6	=6	=6	=6
!LO:T:lv:n=2:b	!	!	!	!	!	!
[4AAA [4AA)	8cc'L 8ee 8aa 8ccc	.	8e'L	.	8eee'L	.
.	(8.cc 8.ee 8.aa 8.ccc	.	(8.e	.	(8.eee	.
4E [4e	.	.	.	.	.	.
.	16bJk 16dd 16ff#X 16bb	.	16dJk)	.	16dddJk)	.
.	8.ccL 8.ee 8.aa 8.ccc	.	(8.eL	.	(8.eeeL	.
[4E 4e]	.	.	.	.	.	.
.	16bJk 16dd 16ff# 16bb	.	16dJk)	.	16dddJk)	.
.	8f' 8a 8cc 8ffn)	.	(8A'	.	(8aa'	.
(>8EL] 8e	4f#X~ 4b 4dd 4ff#X	.	4B~)	.	4bb~)	.
8EEJ 8E	.	.	.	.	.	.
=7	=7	=7	=7	=7	=7	=7
!LO:T:lv:n=2:b	!	!	!	!	!	!
[4EEE [4EE)	8b-X'L 8dd 8ff 8bb-X	.	8d'L	.	8ddd'L	.
.	(8.b- 8.dd 8.ff 8.bb-	.	(8.d	.	(8.ddd	.
4E [4e	.	.	.	.	.	.
.	16bnJk 16ee 16ff#X 16bbn	.	16eJk)	.	16eeeJk)	.
.	8.ccL 8.dd 8.gg 8.ccc	.	(8.dL	.	(8.dddL	.
[4E 4e]	.	.	.	.	.	.
.	16bJk 16ee 16ff# 16bb	.	16eJk)	.	16eeeJk)	.
.	8fn' 8a 8cc 8ffn)	.	(8A'	.	(8aa'	.
(>8EL] 8e	4f#X~ 4b 4dd 4ff#X	.	4B~)	.	4bb~)	.
8EEJ 8E	.	.	.	.	.	.
=8	=8	=8	=8	=8	=8	=8
!LO:T:lv:n=2:b	!	!	!	!	!	!
[4EEE [4EE)	8b-X'L 8dd 8ffn 8bb-X	.	8d'L	.	8ddd'L	.
.	(>8.b- 8.dd 8.ff 8.bb-	.	(8.d	.	(8.ddd	.
4E [4e	.	.	.	.	.	.
.	16bnJk 16ee 16ff#X 16bbn	.	16eJk)	.	16eeeJk)	.
.	8.gL 8.cc 8.ee 8.gg	.	(8.cL	.	(8.cccL	.
[4E 4e]	.	.	.	.	.	.
.	16f#XJk 16b 16dd 16ff#	.	16BJk)	.	16bbJk)	.
.	8d'> 8g 8b 8dd)	.	(8G'	.	(8gg'	.
(8EL] 8e	4c#X~ 4e 4a 4cc#X	.	4E~)	.	4ee~)	.
8EEJ 8E	.	.	.	.	.	.
=	=	=	=	=	=	=
*-	*-	*-	*-	*-	*-	*-
!!!system-decoration: s1,s2[({(s3,s4)})]
!!!RDF**kern: > = above
!!!RDF**kern: < = below
!!!EED: Daniel Wright
!!!EEV: 2021/07/09
!!!EED2: Gabriella Vici
!!!Suter_Work_ID: Rav-23
!!!Suter_Example_Number: 292
!!!Suter_Example_ID: Rav-23/1/1-8
!!!Premiere_Location: Paris,France
!!!Other_Tsigs: none
!!!Full_Unit_Duration: 9:10
!!!First_Publication_Year: 1915
!!!First_Public_Performance_Year: 1915
!!!Example_Total_Measures: 8
!!!Example_Timestamp_Duration: 36
!!!Example_Start_Tsig_Type: simple other
!!!Example_Start_Tsig_Mean_Beat_Rate: 132
!!!Example_Start_Tsig_Beat_Rate: 132
!!!Example_Start_Tsig_Beat: eighth
!!!Example_Start_Tsig: 8/8
!!!Example_Start_Timestamp: 0:00
!!!Example_Start_Tempo_Expression: Modéré
!!!Example_Start_Notated_Beat_Rate: 132
!!!Example_Start_Notated_Beat: eighth
!!!Example_Start_Measure: 1
!!!Example_Metadata_Validated: Y
!!!Example_End_Timestamp: 0:36
!!!Example_End_Measure: 8
!!!Example_Dataset: T
!!!Editorial_Comments:
!!!Death_Place: Paris,France
!!!Death_Date: 28-Dec-1937
!!!Changing_Tsig: no
!!!Birth_Place: Ciboure,France
!!!Birth_Date: 7-Mar-1875
!!!Audio_Example_Quarter_Note_Tempo:
!!!Audio_Example_Duration:
!!!EEV2: 2022/02/08
